vaadin-icons/assets/svg/workplace.svg

<?xml version="1.0" encoding="utf-8"?>
<!-- Generated by IcoMoon.io -->
<!DOCTYPE svg PUBLIC "-//W3C//DTD SVG 1.1//EN" "http://www.w3.org/Graphics/SVG/1.1/DTD/svg11.dtd">
<svg version="1.1" xmlns="http://www.w3.org/2000/svg" xmlns:xlink="http://www.w3.org/1999/xlink" width="16" height="16" viewBox="0 0 16 16">
<path fill="#444" d="M11 3v-3h-9v14h-2v1h7v-5h2v-2h5v-5h-3zM-3 4v-4h-7v4h-8v12h6v-3h4v3h6v-12h-1zM-14 11h-2v-2h2v2zM-14 8h-2v-2h2v2zM-11 11h-2v-2h2v2zM-11 8h-2v-2h2v2zM-8 3v-1h1v-1h1v1h1v1h-1v1h-1v-1h-1zM-7 11h-2v-2h2v2zM-7 8h-2v-2h2v2zM-4 11h-2v-2h2v2zM-4 8h-2v-2h2v2zM6 10h-2v-2h2v2zM6 7h-2v-2h2v2zM6 4h-2v-2h2v2zM9 7h-2v-2h2v2zM9 4h-2v-2h2v2zM13 7h-2v-2h2v2z"></path>
<path fill="#444" d="M14 11v-2h-4v2h-2v5h8v-5h-2zM13 11h-2v-1h2v1z"></path>
</svg>

<?xml version="1.0" encoding="UTF-8"?>
<!DOCTYPE svg PUBLIC "-//W3C//DTD SVG 1.1//EN" "http://www.w3.org/Graphics/SVG/1.1/DTD/svg11.dtd">
<svg version="1.1" xmlns="http://www.w3.org/2000/svg" xmlns:xlink="http://www.w3.org/1999/xlink" width="16" height="16" viewBox="0 0 16 16">
<path fill="#444" d="M11,3 L11,0 L2,0 L2,14 L0,14 L0,15 L7,15 L7,10 L9,10 L9,8 L14,8 L14,3 L11,3 Z M6,10 L4,10 L4,8 L6,8 L6,10 Z M6,7 L4,7 L4,5 L6,5 L6,7 Z M6,4 L4,4 L4,2 L6,2 L6,4 Z M9,7 L7,7 L7,5 L9,5 L9,7 Z M9,4 L7,4 L7,2 L9,2 L9,4 Z M13,7 L11,7 L11,5 L13,5 L13,7 Z M14,11 L16,11 L16,16 L8,16 L8,11 L10,11 L10,9 L14,9 L14,11 Z" fill-rule="nonzero"></path>
</svg>
